X:1
T: Sir James Douglas
C:Nathaniel Gow
R:Strathspey
Q: 128
K:D
M:4/4
L:1/16
|:B2|A3D F3A A3D D3B|A3D F3D FGA2 B4|A3D F3D A3D F3F|G3B F3B EEE2 B4|
A3D F3A A3D D3B|A3D F3D FGA2 B4|A3D F3D A3D F3F|G3B F3B EEE2 B4|
Ad3 d3f e3d c3B|Ad3 d3f e3f g3f|Ad3 d3f e3c d3A|B3d F3d EEE2 B4|
Ad3 d3f e3d c3B|Ad3 d3f e3f g3f|fa3 ef3 df3 Bd3|A3d F3d EEE2 B2:|
